X: 4
T: Tha Mi Sgith
R: strathspey
M: 4/4
L: 1/8
K: Amin
|:B|"Am"A<A a2 "G"g<e g2|"Em"e>dB>A "G"G>AB<G|"Am"A<A a2 "G"g<e g2|"Em"e>dB>e "Am"A/A/A A:|
|:g|"Em"e>dB>A "G"G>AB<G|"Em"e>dB>A "G"B2 B>g|"Em"e>dB>A "G"G>AB<d|"Em"e>dB>e "Am"A/A/A A:|


Tune 647	Setting 28139

